X:1
T:A Major Jeremiah Ingalls, 1805 Harmonized by Ananias Davisson, 1820
T:Unknown Author, before 1790          11 11. 11 11.
T:Redemption
T:Transcribed from The Kentucky Harmony, 1825
%%score [ 1 2 3 4 ]
L:1/8
Q:1/4=160
M:4/4
K:A
V:1 treble nm="Tr." snm="Tr."
V:2 treble nm="C." snm="C."
V:3 treble-8 nm="T." snm="T."
V:4 bass nm="B." snm="B."
V:1
"^1. Come friends and relations, let's join heart and hand," (c3 d) | e4 f2 e2 | c4 e2 c2 | %3
 (B2 G2) B2 c2 | %4
 e4"^The     voice  of  the  tur–tle is heard in our land;                                                                     And march to the place where redemption is found." (c2 d2) | %5
 e4 c2 A2 | (B2 c2) B2 A2 | E4 E2 E2 | %8
 E4"^Let's all walk together, and follow the sound," (C2 E2) | A4 A2 A2 | c4 A2 c2 | e4 e2 f2 | %12
 e4 (c2 A2) | c4 c2 c2 | c4 e2 c2 | A4 c2 c2 | c8 |] %17
V:2
"^2.  The  place it is hidden, the  place is concealed,  No  mortal  can  know  it  until  'tis  revealed;   The  place  is  in  Jesus,  to Jesus we’ll  go,   And there find redemption from sorrow and woe.\n3.  The  place it Is hidden   by  rea – son   of   sin.  You  can't  see  the sorrowful state you are in;    You're blinded, polluted, in prison and pain,   O how can  such  rebels  re–demp–tion  obtain?" E4 | %1
 E4 A2 A2 | F4 G2 F2 | E4 E2 E2 | E4 (c2 B2) | (A2 G2) F2 A2 | G4 F2 A2 | c4 c2 c2 | c4 (c2 A2) | %9
 F4 F2 F2 | F4 A2 G2 | E4 E2 E2 | E4 (A2 c2) | c4 c2 A2 | F4 B2 G2 | E4 E2 E2 | E8 |] %17
V:3
"^4. But If you are wounded and bruised by the fall.   Rise  up and press forward, for you he doth call;   Or If you are tempted to doubt or despair.    Then come home to Jesus, redemption is there." (E3 F) | %1
 A4 c2 A2 | F4 E2 F2 | B4 B2 c2 | B4 (E2 F2) | (A2 B2) c2 d2 | (e2 c2) B2 A2 | e4 e2 f2 | e4 c4 | %9
 d4 f2 d2 | c4 e2 c2 | ((B2 A2)) B2 c2 | B4 (E2 F2) | A4 c2 A2 | F4 E2 C2 | (E3 F) A2 A2 | A8 |] %17
V:4
"^___________________________________________________________\nA folk hymn, based in part on the old English folk song \nThe Grenadier and the\n   Lady\n (Jackson 1953a, no. 46; 1953b, no, 42).\nThis tune was originally published for three voices by Jeremiah ingalls in \nThe\n   Christian Harmony\n in 1805; re-harmonized as above, and by Allen Carden in \nThe \n   Missouri Harmony\n in 1820, Davisson's version was reprinted in \nThe Southern\n   Harmony in 1835." (C2 B,2) | %1
 A,4 F,2 F,2 | F,4 E2 C2 | B,4 E,2 E,2 | E,4 (C,2 D,2) | E,4 E,2 F,2 | E,4 C2 C2 | A,4 A,2 A,2 | %8
 A,4 C4 | F,4 F,2 A,2 | F,4 C,2 C,2 | %11
"^_____________________________________\nEdited by B. C. Johnston, 2017. \n   1. Measure 8, \nBass\n: last note changed from B to C.\n   2. Measure 11, Counter: changed from F-B-G to F-A-G." E,4 E,2 E,2 | %12
 E,4 (E2 C2) | A,4 A,2 A,2 | F,4 B,2 G,2 | E,4 C,2 E,2 | A,8 |] %17

